24x24/apps/openoffice4-base.svg

<svg xmlns="http://www.w3.org/2000/svg" width="24" height="24" version="1">
 <circle style="opacity:0.2" cx="12" cy="12.5" r="10"/>
 <circle style="fill:#e81d62" cx="12" cy="12" r="10"/>
 <path style="opacity:0.2;fill:#f4f4f7" d="M 12,2 A 10,10 0 0 0 2,12 10,10 0 0 0 2.0107422,12.291016 10,10 0 0 1 12,2.5 10,10 0 0 1 21.989258,12.208985 10,10 0 0 0 22,12 10,10 0 0 0 12,2 Z"/>
 <path style="opacity:0.2" d="m 12,7.5 c -1.6775,0 -3.1111781,0.5176 -3.7050781,1.25 -0.0499,0.0615 -0.093259,0.125053 -0.1308594,0.189453 -0.0358,0.0611 -0.067697,0.122147 -0.091797,0.185547 a 3.9999,2 0 0 0 -0.015625,0.05859 c -0.0138,0.043 -0.028909,0.08696 -0.037109,0.130859 A 3.9999,2 0 0 0 8,9.5 c 2.2e-4,0.06499 0.00673,0.130862 0.019531,0.195312 a 3.9999,2 0 0 0 0.054688,0.1875 3.9999,2 0 0 0 0.09375,0.185547 A 3.9999,2 0 0 0 8.2949219,10.25 3.9999,2 0 0 0 12,11.5 a 3.9999,2 0 0 0 3.705078,-1.25 3.9999,2 0 0 0 0.002,-0.002 3.9999,2 0 0 0 0.107422,-0.154297 c 0.0064,-0.01014 0.01351,-0.02106 0.01953,-0.03125 a 3.9999,2 0 0 0 0.06641,-0.132812 c 0.0094,-0.02093 0.02133,-0.04144 0.0293,-0.0625 a 3.9999,2 0 0 0 0.03125,-0.111329 c 0.0077,-0.02933 0.01638,-0.05839 0.02148,-0.08789 A 3.9999,2 0 0 0 16,9.5 3.9999,2 0 0 0 15.978516,9.300781 C 15.940226,9.107281 15.845648,8.923 15.705078,8.75 15.111378,8.0175 13.6776,7.5 12,7.5 Z M 8.2949219,11.75 A 3.9999,2 0 0 0 8,12.5 a 3.9999,2 0 0 0 4,2 3.9999,2 0 0 0 4,-2 A 3.9999,2 0 0 0 15.705078,11.75 3.9999,2 0 0 1 12,13 3.9999,2 0 0 1 8.2949219,11.75 Z m 0,3 A 3.9999,2 0 0 0 8,15.5 a 3.9999,2 0 0 0 4,2 3.9999,2 0 0 0 4,-2 A 3.9999,2 0 0 0 15.705078,14.75 3.9999,2 0 0 1 12,16 3.9999,2 0 0 1 8.2949219,14.75 Z"/>
 <path style="fill:#f4f4f7" d="M 12,7 C 10.3225,7 8.8888219,7.5176 8.2949219,8.25 8.2450219,8.3115 8.2016629,8.375053 8.1640625,8.439453 8.1282625,8.500553 8.0963655,8.5616 8.0722655,8.625 a 3.9999,2 0 0 0 -0.015625,0.05859 c -0.0138,0.043 -0.028909,0.08696 -0.037109,0.130859 A 3.9999,2 0 0 0 8,9 c 2.2e-4,0.06499 0.00673,0.130862 0.019531,0.195312 a 3.9999,2 0 0 0 0.054688,0.1875 3.9999,2 0 0 0 0.09375,0.185547 A 3.9999,2 0 0 0 8.2949219,9.75 3.9999,2 0 0 0 12,11 3.9999,2 0 0 0 15.705078,9.75 3.9999,2 0 0 0 15.707078,9.748 3.9999,2 0 0 0 15.8145,9.593703 c 0.0064,-0.01014 0.01351,-0.02106 0.01953,-0.03125 a 3.9999,2 0 0 0 0.06641,-0.132812 c 0.0094,-0.02093 0.02133,-0.04144 0.0293,-0.0625 a 3.9999,2 0 0 0 0.03125,-0.111329 c 0.0077,-0.02933 0.01638,-0.05839 0.02148,-0.08789 A 3.9999,2 0 0 0 16,9 3.9999,2 0 0 0 15.978516,8.800781 C 15.940226,8.607281 15.845648,8.423 15.705078,8.25 15.111378,7.5175 13.6776,7 12,7 Z M 8.2949219,11.25 A 3.9999,2 0 0 0 8,12 3.9999,2 0 0 0 12,14 3.9999,2 0 0 0 16,12 3.9999,2 0 0 0 15.705078,11.25 3.9999,2 0 0 1 12,12.5 3.9999,2 0 0 1 8.2949219,11.25 Z m 0,3 A 3.9999,2 0 0 0 8,15 3.9999,2 0 0 0 12,17 3.9999,2 0 0 0 16,15 3.9999,2 0 0 0 15.705078,14.25 3.9999,2 0 0 1 12,15.5 3.9999,2 0 0 1 8.2949219,14.25 Z"/>
</svg>

<svg xmlns="http://www.w3.org/2000/svg" width="24" height="24" version="1"><circle style="opacity:.2" cx="12" cy="12.5" r="10"/><circle style="fill:#e81d62" cx="12" cy="12" r="10"/><path style="opacity:.2;fill:#f4f4f7" d="M12 2A10 10 0 0 0 2 12a10 10 0 0 0 .01.291A10 10 0 0 1 12 2.5a10 10 0 0 1 9.99 9.709A10 10 0 0 0 22 12 10 10 0 0 0 12 2z"/><path style="opacity:.2" d="M12 7.5c-1.677 0-3.111.518-3.705 1.25a1.504 1.504 0 0 0-.223.375 4 2 0 0 0-.015.059c-.014.043-.03.087-.037.13A4 2 0 0 0 8 9.5c0 .065.007.13.02.195a4 2 0 0 0 .054.188 4 2 0 0 0 .094.185 4 2 0 0 0 .127.182A4 2 0 0 0 12 11.5a4 2 0 0 0 3.705-1.25 4 2 0 0 0 .002-.002 4 2 0 0 0 .108-.154l.019-.032a4 2 0 0 0 .066-.132c.01-.021.022-.042.03-.063a4 2 0 0 0 .031-.111c.008-.03.016-.059.021-.088A4 2 0 0 0 16 9.5a4 2 0 0 0-.021-.2 1.269 1.269 0 0 0-.274-.55C15.111 8.018 13.678 7.5 12 7.5zm-3.705 4.25A4 2 0 0 0 8 12.5a4 2 0 0 0 4 2 4 2 0 0 0 4-2 4 2 0 0 0-.295-.75A4 2 0 0 1 12 13a4 2 0 0 1-3.705-1.25zm0 3A4 2 0 0 0 8 15.5a4 2 0 0 0 4 2 4 2 0 0 0 4-2 4 2 0 0 0-.295-.75A4 2 0 0 1 12 16a4 2 0 0 1-3.705-1.25z"/><path style="fill:#f4f4f7" d="M12 7c-1.678 0-3.111.518-3.705 1.25a1.504 1.504 0 0 0-.223.375 4 2 0 0 0-.015.059c-.014.043-.03.087-.037.13A4 2 0 0 0 8 9c0 .065.007.13.02.195a4 2 0 0 0 .054.188 4 2 0 0 0 .094.185 4 2 0 0 0 .127.182A4 2 0 0 0 12 11a4 2 0 0 0 3.705-1.25 4 2 0 0 0 .002-.002 4 2 0 0 0 .107-.154l.02-.032a4 2 0 0 0 .066-.132c.01-.021.022-.042.03-.063a4 2 0 0 0 .031-.111c.008-.03.016-.059.021-.088A4 2 0 0 0 16 9a4 2 0 0 0-.021-.2 1.269 1.269 0 0 0-.274-.55C15.111 7.518 13.678 7 12 7zm-3.705 4.25A4 2 0 0 0 8 12a4 2 0 0 0 4 2 4 2 0 0 0 4-2 4 2 0 0 0-.295-.75A4 2 0 0 1 12 12.5a4 2 0 0 1-3.705-1.25zm0 3A4 2 0 0 0 8 15a4 2 0 0 0 4 2 4 2 0 0 0 4-2 4 2 0 0 0-.295-.75A4 2 0 0 1 12 15.5a4 2 0 0 1-3.705-1.25z"/></svg>
